assets/svg/networks/wallet_polkadot.svg

<svg width="36" height="36" viewBox="0 0 36 36" fill="none" xmlns="http://www.w3.org/2000/svg">
<g clip-path="url(#clip0_52314_201701)">
<rect width="36" height="36" rx="10" fill="#E6007A"/>
<path d="M22.1187 8.71832C22.1187 10.0449 20.2709 11.1237 17.994 11.1237C15.7172 11.1237 13.8681 10.0449 13.8681 8.71832C13.8681 7.39172 15.7265 6.31174 17.994 6.31174C20.2615 6.31174 22.1187 7.39172 22.1187 8.71832ZM22.1187 27.2814C22.1187 28.608 20.2709 29.688 17.994 29.688C15.7172 29.688 13.8681 28.608 13.8681 27.2814C13.8681 25.9548 15.7265 24.876 17.994 24.876C20.2615 24.876 22.1187 25.9548 22.1187 27.2814ZM12.0471 14.6629C13.2159 12.6502 13.2229 10.4704 12.0751 9.80999C10.9192 9.14377 9.04909 10.2436 7.88145 12.2587C6.71263 14.2713 6.71263 16.4524 7.85223 17.1116C9.00701 17.7719 10.8771 16.6768 12.0471 14.6629ZM28.1229 18.8811C29.2777 19.5333 29.2707 21.6723 28.1077 23.6511C26.9401 25.631 25.063 26.704 23.9152 26.0518C22.7534 25.3973 22.7593 23.2595 23.9211 21.2784C25.0899 19.2996 26.9681 18.2278 28.1229 18.8811ZM12.081 26.0647C13.2358 25.4101 13.2299 23.2724 12.06 21.2936C10.8993 19.3136 9.02104 18.2406 7.86742 18.894C6.70562 19.5544 6.71147 21.6851 7.88145 23.6639C9.04325 25.6451 10.9204 26.725 12.0751 26.0705L12.081 26.0647ZM28.1218 12.2668C29.2894 14.2795 29.2894 16.4535 28.1416 17.1127C26.9939 17.7801 25.1168 16.6873 23.9468 14.6664C22.792 12.6514 22.7803 10.4797 23.9269 9.81817C25.0817 9.15195 26.9518 10.2448 28.1218 12.2668Z" fill="white"/>
</g>
<defs>
<clipPath id="clip0_52314_201701">
<rect width="36" height="36" fill="white"/>
</clipPath>
</defs>
</svg>

<svg xmlns="http://www.w3.org/2000/svg" width="36" height="36" fill="none"><g clip-path="url(#a)"><rect width="36" height="36" fill="#E6007A" rx="10"/><path fill="#fff" d="M22.119 8.718c0 1.327-1.848 2.406-4.125 2.406s-4.126-1.08-4.126-2.406 1.858-2.406 4.126-2.406 4.125 1.08 4.125 2.406m0 18.563c0 1.327-1.848 2.407-4.125 2.407s-4.126-1.08-4.126-2.407 1.858-2.405 4.126-2.405 4.125 1.079 4.125 2.405M12.047 14.663c1.169-2.013 1.176-4.193.028-4.853-1.156-.666-3.026.434-4.194 2.449-1.168 2.012-1.168 4.193-.029 4.853 1.155.66 3.025-.435 4.195-2.45m16.076 4.218c1.155.652 1.148 2.791-.015 4.77-1.168 1.98-3.045 3.053-4.193 2.4-1.162-.654-1.156-2.791.006-4.773 1.169-1.978 3.047-3.05 4.202-2.397M12.08 26.065c1.155-.655 1.149-2.793-.021-4.771-1.16-1.98-3.039-3.053-4.193-2.4-1.161.66-1.156 2.791.014 4.77 1.162 1.981 3.04 3.061 4.194 2.406zm16.04-13.798c1.168 2.013 1.168 4.186.02 4.846-1.147.667-3.024-.426-4.194-2.447-1.155-2.015-1.167-4.186-.02-4.848 1.155-.666 3.025.427 4.195 2.449"/></g><defs><clipPath id="a"><path fill="#fff" d="M0 0h36v36H0z"/></clipPath></defs></svg>
